icons/wechat-pay-line.svg

<svg xmlns="http://www.w3.org/2000/svg" width="24" height="24" fill="none"><g clip-path="url(#a)"><g><path fill="#121212" d="M19.1446 8.99295L9.34561 14.601L9.27561 14.647C9.18254 14.6934 9.07963 14.7168 8.97561 14.715C8.85683 14.7156 8.74011 14.6839 8.63794 14.6233C8.53577 14.5627 8.45201 14.4755 8.39561 14.371L8.34961 14.279L6.51961 10.329C6.49561 10.283 6.49561 10.237 6.49561 10.191C6.49561 10.007 6.63461 9.86995 6.81961 9.86995C6.88961 9.86995 6.95961 9.89295 7.02861 9.93895L9.18361 11.454C9.34561 11.546 9.53161 11.615 9.73961 11.615C9.85894 11.6143 9.97706 11.5909 10.0876 11.546L18.3626 7.89795C16.9336 6.27295 14.6336 5.19995 11.9996 5.19995C7.57961 5.19995 4.09961 8.22195 4.09961 11.8C4.09961 13.166 4.59961 14.473 5.53161 15.581C5.57961 15.638 5.65161 15.718 5.74561 15.816C6.13868 16.2253 6.44015 16.7136 6.62997 17.2485C6.8198 17.7833 6.89365 18.3524 6.84661 18.918L6.82161 19.215L7.53761 18.779C8.34724 18.2853 9.30591 18.0953 10.2426 18.243C10.4546 18.276 10.6286 18.302 10.7626 18.319C11.1686 18.373 11.5826 18.4 11.9996 18.4C16.4196 18.4 19.8996 15.378 19.8996 11.8C19.8996 10.804 19.6296 9.84995 19.1446 8.99295ZM6.19161 21.943C6.03419 22.0412 5.85254 22.0937 5.66697 22.0946C5.4814 22.0955 5.29925 22.0448 5.14088 21.9481C4.98251 21.8513 4.85418 21.7125 4.77024 21.547C4.68631 21.3815 4.65008 21.1959 4.66561 21.011L4.85361 18.752C4.87719 18.4692 4.84035 18.1847 4.74552 17.9173C4.6507 17.6498 4.50006 17.4057 4.30361 17.201C4.19872 17.0932 4.09734 16.9822 3.99961 16.868C2.80561 15.447 2.09961 13.695 2.09961 11.8C2.09961 7.04995 6.53161 3.19995 11.9996 3.19995C17.4676 3.19995 21.8996 7.04995 21.8996 11.8C21.8996 16.55 17.4676 20.4 11.9996 20.4C11.4896 20.4 10.9896 20.367 10.5006 20.302C10.3106 20.2763 10.1209 20.2483 9.93161 20.218C9.4631 20.144 8.98356 20.239 8.57861 20.486L6.19161 21.9419V21.943Z"/></g></g><defs><clipPath id="a"><rect width="24" height="24" fill="white"/></clipPath></defs></svg>

<svg width="24" height="24" fill="none" xmlns="http://www.w3.org/2000/svg"><g clip-path="url(#a)"><path d="m19.145 8.993-9.8 5.608-.07.046a.647.647 0 0 1-.3.068.655.655 0 0 1-.58-.344l-.045-.092-1.83-3.95c-.024-.046-.024-.092-.024-.138 0-.184.139-.321.324-.321.07 0 .14.023.209.069l2.155 1.515c.162.092.348.161.556.161a.94.94 0 0 0 .348-.069l8.275-3.648C16.933 6.273 14.633 5.2 12 5.2c-4.42 0-7.9 3.022-7.9 6.6 0 1.366.5 2.673 1.432 3.781.048.057.12.137.214.235a3.999 3.999 0 0 1 1.1 3.102l-.024.297.716-.436a4 4 0 0 1 2.705-.536c.212.033.386.059.52.076.406.054.82.081 1.237.081 4.42 0 7.9-3.022 7.9-6.6 0-.996-.27-1.95-.755-2.807ZM6.192 21.943a1 1 0 0 1-1.526-.932l.188-2.259a2 2 0 0 0-.55-1.551A7.059 7.059 0 0 1 4 16.868c-1.194-1.421-1.9-3.173-1.9-5.068 0-4.75 4.432-8.6 9.9-8.6s9.9 3.85 9.9 8.6-4.432 8.6-9.9 8.6c-.51 0-1.01-.033-1.5-.098a25.86 25.86 0 0 1-.568-.084 2 2 0 0 0-1.353.268l-2.387 1.456v.001Z" /></g><defs><clipPath id="a"><path fill="#fff" d="M0 0h24v24H0z"/></clipPath></defs></svg>
